resources/svg/steps-option.svg

<svg xmlns="http://www.w3.org/2000/svg" viewBox="0 0 24 24" fill="currentColor"><path fill="none" stroke="currentColor" stroke-width="2" d="M24,9 L19,9 L19,14 L14,14 L14,19 L9,19 L9,24 M1,24 L1,16.9970301 C1,16.4463856 1.31329632,15.6867037 1.70336215,15.2966378 L15.2966378,1.70336215 C15.685094,1.31490596 16.4530363,1 16.9970301,1 L24,1"/></svg>

<svg viewBox="0 0 24 24"><path fill="none" stroke="currentColor" stroke-width="2" d="M24 9h-5v5h-5v5H9v5m-8 0v-7.003c0-.55.313-1.31.703-1.7L15.297 1.703c.388-.388 1.156-.703 1.7-.703H24"/></svg>
